img/logo-designin.svg

<svg width="82" height="40" viewBox="0 0 82 40" fill="none" xmlns="http://www.w3.org/2000/svg">
<path fill-rule="evenodd" clip-rule="evenodd" d="M2.96967 10.6457V37.528H79.5294V10.6457H2.96967ZM81.999 9.40975V40H0.5V9.40975L9.45254 0.448975H73.0465L81.999 9.40975ZM77.2715 8.17378L72.0234 2.92091H10.4755L5.22747 8.17378H77.2715Z" fill="#737380"/>
<path d="M10.8627 20.6942C11.495 20.6942 12.0383 20.8375 12.4927 21.1243C12.9471 21.411 13.2781 21.8016 13.4855 22.296V18.0986H16.0194V29.074H13.4855V27.576C13.2781 28.0704 12.9471 28.461 12.4927 28.7477C12.0383 29.0345 11.495 29.1779 10.8627 29.1779C10.1811 29.1779 9.56862 29.0098 9.02529 28.6736C8.49185 28.3275 8.06706 27.8331 7.75095 27.1904C7.44471 26.5477 7.29159 25.7963 7.29159 24.936C7.29159 24.0659 7.44471 23.3144 7.75095 22.6816C8.06706 22.0389 8.49185 21.5495 9.02529 21.2133C9.56862 20.8672 10.1811 20.6942 10.8627 20.6942ZM11.6777 22.9189C11.1344 22.9189 10.6948 23.0969 10.3589 23.4529C10.0329 23.8088 9.86992 24.3032 9.86992 24.936C9.86992 25.5688 10.0329 26.0632 10.3589 26.4192C10.6948 26.7751 11.1344 26.9531 11.6777 26.9531C12.2112 26.9531 12.6458 26.7702 12.9817 26.4043C13.3275 26.0385 13.5003 25.5491 13.5003 24.936C13.5003 24.3131 13.3275 23.8236 12.9817 23.4677C12.6458 23.1018 12.2112 22.9189 11.6777 22.9189Z" fill="#737380"/>
<path d="M25.6175 24.7135C25.6175 24.9212 25.5928 25.1486 25.5435 25.3958H19.8089C19.8385 26.0187 19.9966 26.4686 20.2831 26.7454C20.5695 27.0124 20.9351 27.1459 21.3796 27.1459C21.755 27.1459 22.0662 27.052 22.3131 26.8641C22.5601 26.6762 22.7231 26.434 22.8021 26.1373H25.4842C25.3755 26.7207 25.1384 27.2448 24.7729 27.7095C24.4074 28.1643 23.9431 28.5252 23.38 28.7922C22.8169 29.0493 22.1896 29.1778 21.4981 29.1778C20.6881 29.1778 19.9669 29.0097 19.3347 28.6736C18.7124 28.3275 18.2234 27.8331 17.8677 27.1904C17.5121 26.5477 17.3343 25.7962 17.3343 24.936C17.3343 24.0659 17.5072 23.3144 17.8529 22.6816C18.2085 22.0389 18.7025 21.5494 19.3347 21.2132C19.9669 20.8672 20.6881 20.6941 21.4981 20.6941C22.3181 20.6941 23.0392 20.8622 23.6616 21.1984C24.2839 21.5346 24.763 22.0092 25.0989 22.6223C25.4447 23.2254 25.6175 23.9225 25.6175 24.7135ZM23.054 24.3279C23.0639 23.7841 22.9157 23.3787 22.6095 23.1117C22.3131 22.8348 21.9427 22.6964 21.4981 22.6964C21.0338 22.6964 20.6486 22.8348 20.3423 23.1117C20.0361 23.3886 19.8632 23.7939 19.8237 24.3279H23.054Z" fill="#737380"/>
<path d="M29.9463 20.6941C30.9935 20.6941 31.8282 20.9562 32.4506 21.4802C33.0828 22.0043 33.478 22.6964 33.636 23.5566H31.2651C31.196 23.2205 31.0379 22.9584 30.791 22.7706C30.5539 22.5728 30.2526 22.4739 29.8871 22.4739C29.6006 22.4739 29.3833 22.5382 29.2351 22.6667C29.0869 22.7854 29.0128 22.9584 29.0128 23.1859C29.0128 23.4429 29.1462 23.6357 29.4129 23.7643C29.6895 23.8928 30.1192 24.0214 30.7021 24.1499C31.3343 24.2982 31.8529 24.4515 32.258 24.6097C32.663 24.758 33.0137 25.0052 33.31 25.3513C33.6064 25.6973 33.7546 26.1621 33.7546 26.7454C33.7546 27.2201 33.6261 27.6403 33.3693 28.0061C33.1125 28.372 32.742 28.6587 32.258 28.8664C31.7739 29.074 31.2009 29.1778 30.5391 29.1778C29.4228 29.1778 28.5288 28.9306 27.857 28.4362C27.1853 27.9419 26.7753 27.2349 26.6271 26.3153H29.0721C29.1116 26.6713 29.2598 26.9432 29.5166 27.1311C29.7833 27.3189 30.1242 27.4129 30.5391 27.4129C30.8255 27.4129 31.0429 27.3486 31.1911 27.2201C31.3392 27.0816 31.4133 26.9037 31.4133 26.6861C31.4133 26.3994 31.275 26.1967 30.9984 26.078C30.7317 25.9495 30.2921 25.816 29.6796 25.6776C29.0671 25.549 28.5633 25.4106 28.1682 25.2623C27.773 25.114 27.4322 24.8767 27.1457 24.5504C26.8593 24.2142 26.716 23.7593 26.716 23.1859C26.716 22.4443 26.9976 21.8461 27.5606 21.3912C28.1237 20.9265 28.919 20.6941 29.9463 20.6941Z" fill="#737380"/>
<path d="M34.9206 18.4694C34.9206 18.0838 35.0589 17.7674 35.3355 17.5202C35.6121 17.2631 35.9776 17.1346 36.4321 17.1346C36.8865 17.1346 37.252 17.2631 37.5286 17.5202C37.8052 17.7674 37.9435 18.0838 37.9435 18.4694C37.9435 18.8451 37.8052 19.1615 37.5286 19.4186C37.252 19.6658 36.8865 19.7894 36.4321 19.7894C35.9776 19.7894 35.6121 19.6658 35.3355 19.4186C35.0589 19.1615 34.9206 18.8451 34.9206 18.4694ZM37.6916 20.798V29.074H35.1577V20.798H37.6916Z" fill="#737380"/>
<path d="M42.5825 20.6941C43.2148 20.6941 43.7581 20.8375 44.2125 21.1243C44.6669 21.411 45.0028 21.8016 45.2201 22.296V20.798H47.7392V29.0295C47.7392 29.8008 47.591 30.4929 47.2947 31.1059C46.9983 31.7289 46.5439 32.2233 45.9314 32.5891C45.3189 32.955 44.5583 33.1379 43.6494 33.1379C42.4047 33.1379 41.407 32.8412 40.6562 32.248C39.9153 31.6646 39.4707 30.8686 39.3226 29.8601H41.8268C41.9058 30.1963 42.0836 30.4583 42.3602 30.6462C42.6467 30.834 43.0172 30.928 43.4716 30.928C43.9952 30.928 44.415 30.7747 44.7311 30.4682C45.0571 30.1716 45.2201 29.692 45.2201 29.0295V27.576C45.0028 28.0704 44.6669 28.461 44.2125 28.7477C43.7581 29.0345 43.2148 29.1778 42.5825 29.1778C41.9009 29.1778 41.2884 29.0097 40.7451 28.6736C40.2116 28.3275 39.7868 27.8331 39.4707 27.1904C39.1645 26.5477 39.0114 25.7962 39.0114 24.936C39.0114 24.0659 39.1645 23.3144 39.4707 22.6816C39.7868 22.0389 40.2116 21.5494 40.7451 21.2132C41.2884 20.8672 41.9009 20.6941 42.5825 20.6941ZM43.3975 22.9189C42.8542 22.9189 42.4146 23.0969 42.0787 23.4528C41.7527 23.8088 41.5897 24.3032 41.5897 24.936C41.5897 25.5688 41.7527 26.0632 42.0787 26.4191C42.4146 26.7751 42.8542 26.9531 43.3975 26.9531C43.931 26.9531 44.3656 26.7702 44.7015 26.4043C45.0472 26.0385 45.2201 25.549 45.2201 24.936C45.2201 24.3131 45.0472 23.8236 44.7015 23.4677C44.3656 23.1018 43.931 22.9189 43.3975 22.9189Z" fill="#737380"/>
<path d="M54.7292 20.7089C55.6775 20.7089 56.4283 21.0253 56.9815 21.6581C57.5446 22.291 57.8261 23.1611 57.8261 24.2685V29.074H55.2923V24.5652C55.2923 24.0114 55.1441 23.5813 54.8477 23.2748C54.5612 22.9584 54.176 22.8002 53.6919 22.8002C53.1782 22.8002 52.7683 22.9633 52.462 23.2896C52.1657 23.6159 52.0175 24.0807 52.0175 24.6838V29.074H49.4836V20.7979H52.0175V22.3107C52.2546 21.8164 52.6053 21.4258 53.0696 21.139C53.5437 20.8523 54.0969 20.7089 54.7292 20.7089Z" fill="#737380"/>
<path d="M62.2269 18.4694C62.2269 18.0838 62.3652 17.7674 62.6418 17.5202C62.9184 17.2631 63.2839 17.1346 63.7383 17.1346C64.1927 17.1346 64.5582 17.2631 64.8348 17.5202C65.1114 17.7674 65.2497 18.0838 65.2497 18.4694C65.2497 18.8451 65.1114 19.1615 64.8348 19.4186C64.5582 19.6658 64.1927 19.7894 63.7383 19.7894C63.2839 19.7894 62.9184 19.6658 62.6418 19.4186C62.3652 19.1615 62.2269 18.8451 62.2269 18.4694ZM64.9978 20.798V29.074H62.4639V20.798H64.9978Z" fill="#737380"/>
<path d="M71.9931 20.7089C72.9415 20.7089 73.6922 21.0253 74.2454 21.6581C74.8085 22.291 75.0901 23.1611 75.0901 24.2685V29.074H72.5562V24.5652C72.5562 24.0114 72.408 23.5813 72.1116 23.2748C71.8252 22.9584 71.4399 22.8002 70.9558 22.8002C70.4422 22.8002 70.0322 22.9633 69.726 23.2896C69.4296 23.6159 69.2814 24.0807 69.2814 24.6838V29.074H66.7475V20.7979H69.2814V22.3107C69.5185 21.8164 69.8692 21.4258 70.3335 21.139C70.8077 20.8523 71.3609 20.7089 71.9931 20.7089Z" fill="#737380"/>
</svg>

<svg width="82" height="40" fill="none" xmlns="http://www.w3.org/2000/svg"><path fill-rule="evenodd" clip-rule="evenodd" d="M2.97 10.646v26.882h76.56V10.646H2.97ZM81.999 9.41V40H.5V9.41L9.453.449h63.593L82 9.409Zm-4.727-1.236L72.023 2.92H10.476L5.226 8.174h72.044Z" fill="#737380"/><path d="M10.863 20.694c.632 0 1.175.143 1.63.43.454.287.785.678.992 1.172v-4.197h2.534v10.975h-2.533v-1.498a2.497 2.497 0 0 1-.993 1.172c-.455.287-.998.43-1.63.43a3.42 3.42 0 0 1-1.838-.504c-.533-.346-.958-.84-1.274-1.484-.306-.642-.46-1.394-.46-2.254 0-.87.154-1.622.46-2.254.316-.643.74-1.133 1.274-1.469a3.347 3.347 0 0 1 1.838-.519Zm.815 2.225c-.544 0-.983.178-1.32.534-.325.356-.488.85-.488 1.483 0 .633.163 1.127.489 1.483.336.356.775.534 1.319.534.533 0 .968-.183 1.304-.549.346-.366.518-.855.518-1.468 0-.623-.172-1.112-.518-1.468-.336-.366-.77-.55-1.304-.55ZM25.617 24.713c0 .208-.024.436-.073.683h-5.735c.03.623.188 1.073.474 1.35.287.266.652.4 1.097.4.375 0 .686-.094.933-.282.247-.188.41-.43.49-.727h2.681a3.562 3.562 0 0 1-.711 1.572c-.366.455-.83.816-1.393 1.083a4.479 4.479 0 0 1-1.882.386c-.81 0-1.531-.168-2.163-.504a3.718 3.718 0 0 1-1.467-1.484c-.356-.642-.534-1.394-.534-2.254 0-.87.173-1.622.519-2.254a3.595 3.595 0 0 1 1.482-1.469c.632-.346 1.353-.519 2.163-.519.82 0 1.541.168 2.164.504a3.5 3.5 0 0 1 1.437 1.424c.346.603.518 1.3.518 2.091Zm-2.563-.385c.01-.544-.138-.95-.444-1.216-.297-.277-.667-.416-1.112-.416-.464 0-.85.139-1.156.416-.306.277-.479.682-.518 1.216h3.23ZM29.946 20.694c1.047 0 1.882.262 2.505.786.632.524 1.027 1.216 1.185 2.077h-2.37a1.27 1.27 0 0 0-.475-.786c-.237-.198-.538-.297-.904-.297-.286 0-.504.064-.652.193-.148.118-.222.291-.222.519 0 .257.133.45.4.578.276.129.706.257 1.29.386.631.148 1.15.302 1.555.46.405.148.756.395 1.052.741.296.346.445.811.445 1.394 0 .475-.129.895-.386 1.261-.257.366-.627.653-1.111.86-.484.208-1.057.312-1.719.312-1.116 0-2.01-.247-2.682-.742-.672-.494-1.082-1.201-1.23-2.12h2.445c.04.355.188.627.445.815.266.188.607.282 1.022.282.287 0 .504-.064.652-.193a.698.698 0 0 0 .222-.534c0-.287-.138-.49-.415-.608-.266-.128-.706-.262-1.318-.4a10.604 10.604 0 0 1-1.512-.416 2.524 2.524 0 0 1-1.022-.712c-.287-.336-.43-.79-.43-1.364 0-.742.282-1.34.845-1.795.563-.464 1.358-.697 2.385-.697ZM34.92 18.47c0-.386.139-.703.416-.95.276-.257.642-.385 1.096-.385.454 0 .82.128 1.097.385.276.247.414.564.414.95 0 .375-.138.692-.414.949-.277.247-.643.37-1.097.37-.454 0-.82-.123-1.096-.37a1.245 1.245 0 0 1-.415-.95Zm2.772 2.328v8.276h-2.534v-8.276h2.534ZM42.583 20.694c.632 0 1.175.143 1.63.43.454.287.79.678 1.007 1.172v-1.498h2.52v8.232c0 .77-.149 1.463-.445 2.076a3.402 3.402 0 0 1-1.364 1.483c-.612.366-1.373.549-2.282.549-1.244 0-2.242-.297-2.993-.89-.74-.583-1.185-1.38-1.333-2.388h2.504c.079.336.257.598.533.786.287.188.657.282 1.112.282.523 0 .943-.153 1.26-.46.325-.296.488-.776.488-1.439v-1.453a2.585 2.585 0 0 1-1.008 1.172c-.454.287-.997.43-1.63.43a3.421 3.421 0 0 1-1.837-.504c-.533-.346-.958-.84-1.274-1.484-.306-.642-.46-1.394-.46-2.254 0-.87.153-1.622.46-2.254.316-.643.74-1.133 1.274-1.469a3.348 3.348 0 0 1 1.838-.519Zm.815 2.225c-.544 0-.983.178-1.32.534-.325.356-.488.85-.488 1.483 0 .633.163 1.127.489 1.483.336.356.775.534 1.319.534.533 0 .968-.183 1.303-.549.346-.366.52-.855.52-1.468 0-.623-.174-1.112-.52-1.468-.335-.366-.77-.55-1.303-.55ZM54.73 20.709c.948 0 1.698.316 2.252.95.563.632.844 1.502.844 2.61v4.805h-2.534v-4.509c0-.554-.148-.984-.444-1.29-.287-.317-.672-.475-1.156-.475-.514 0-.924.163-1.23.49-.296.326-.445.79-.445 1.394v4.39h-2.533v-8.276h2.533v1.513a2.744 2.744 0 0 1 1.053-1.172c.474-.287 1.027-.43 1.66-.43ZM62.227 18.47c0-.386.138-.703.415-.95.276-.257.642-.385 1.096-.385.455 0 .82.128 1.097.385.276.247.415.564.415.95 0 .375-.139.692-.415.949-.277.247-.642.37-1.097.37-.454 0-.82-.123-1.096-.37a1.245 1.245 0 0 1-.415-.95Zm2.77 2.328v8.276h-2.533v-8.276h2.534ZM71.993 20.709c.949 0 1.7.316 2.252.95.563.632.845 1.502.845 2.61v4.805h-2.534v-4.509c0-.554-.148-.984-.444-1.29-.287-.317-.672-.475-1.156-.475-.514 0-.924.163-1.23.49-.296.326-.445.79-.445 1.394v4.39h-2.534v-8.276h2.534v1.513a2.744 2.744 0 0 1 1.052-1.172c.475-.287 1.028-.43 1.66-.43Z" fill="#737380"/></svg>
